X: 40705
T: Tory Island Highland, The
R: strathspey
M: 4/4
K: Gmajor
|:G>A|B>D (3DDD E>G (3GGG|d>BG<B (3ABA (3FGA|B>D D2 E>GG>B|d>BA<B G2:|
G>A|B>d (3ddd e>g (3ggg|d>BG<B A2 G>A|B>d d2 e>gg>e|d>BA<B G2 (3FGA|
B>d d2 e>g g2|d>gB<G A2- A>G|B>D D2 E>GG>e|d>BA<F G2||

